X:1
T:Hark, the Tramp of Coming Legions
T:Hark, the Tramp of Coming Legions
T:Joseph W. Lerman
T:Alice Jean Cleator, 1902
T:Public Domain Courtesy of the Cyber Hymnal™
T:Public Domain Courtesy of the Cyber Hymnal™
C:Joseph W. Lerman
Z:Public Domain
Z:Courtesy of the Cyber Hymnal™
%%score ( 1 2 ) ( 3 4 )
L:1/8
Q:1/4=110
M:4/4
K:G
V:1 treble 
V:2 treble 
V:3 bass 
V:4 bass 
V:1
 [GB]2 [GB]2 [GB]>[Gc] [GB]>[FA] | [DG]4 D4 | [Gd]2 [Gd]2 [Ge]>[Gd] [Fc]>[GB] | [FA]6 z2 | %4
w: 1.~Hark, the sound of com- ing|le- gions,|O how joy- ful is the|sound,|
w: 2.~Hark, the tramp of com- ing|le- gions,|Hosts of Sa- tan now must|quail,|
w: 3.~Hark, the tramp of com- ing|le- gions,|March- ing on- ward mil- lions|strong,|
 [GB]2 [GB]2 [FB]>[Fc] [FB]>[FA] | [EG]4 [EB]4 | [G^c]2 [Gc]2 [Gc]>[GA] [GB]>[Gc] | [Fd]6 z2 | %8
w: ’Tis the child- ren’s ar- my|march- ing,|On the Mas- ter’s er- rands|bound.|
w: They must scat- ter in con-|fu- sion|When this ar- my shall pre-|vail.|
w: They shall sure- ly be vic-|tor- ious|O’er the hosts of sin and|wrong.|
 [Fe]2 [Fe]2 [Fe]>[Fd] [Fc]>[FB] | [Fc]4 [FA]4 | [Dd]2 [Gd]2 [Fd]>[Fc] [FB]>[FA] | [GB]6 z2 | %12
w: See their fac- es all are|glow- ing|With the joy- ous light of|youth|
w: At the sum- mons of the|Mas- ter,|See the child- ren fall in|line,|
w: Ev- er loy- al to the|Mas- ter,|Strong their hearts shall be and|brave,|
 D2 [DG]2 [=FB]>[Fe] [Fd]>[FB] | (A2 B2 d2) [Ec]2 | [DB]2 [B,G]2 [Ec]>[EA] [DG]>[CF] | %15
w: As they’re march- ing, on- ward|march- * * ing|For the cause of Right and|
w: March- ing on with glad en-|dea- * * vor,|Trust- ing in the help di-|
w: Till the Gos- pel’s glor- ious|ban- * * ner|O- ver all the world shall|
 ([B,G]2- [B,-DG]2 [B,G]2 A2) ||"^Refrain" [GB]2 [GB]2 [GB]>[Gc] [FB]>[FA] | [DG]4 D4 | %18
w: Truth. * * *|||
w: vine. * * *|Hark, the tramp of com- ing|le- gions,|
w: wave. * * *|||
 [Gd]2 [Gd]2 [Ge]>[Gd] [Fc]>[GB] | [FA]6 z2 | [GB]2 [GB]2 [Gc]>[Gc] [=Fd]>[Fd] | %21
w: |||
w: O how joy- ful is the|sound,|’Tis the child- ren’s ar- my|
w: |||
 [Ee]2 [EB]2 [Ec]2 [_EA]2 | [DG]2 G2 [Ec]2 [CF]2 | [B,G]6 z2 |] %24
w: |||
w: march- ing, On the|Mas- ter’s er- rands|bound.|
w: |||
V:2
 x8 | x4 D4 | x8 | x8 | x8 | x8 | x8 | x8 | x8 | x8 | x8 | x8 | D2 x6 | E6 x2 | x8 | x8 || x8 | %17
 x4 D4 | x8 | x8 | x8 | x8 | x2 (B,E) x4 | x8 |] %24
V:3
 [G,D]2 [G,D]2 [G,D]>[G,E] [D,D]>[D,C] | [G,B,]4 [G,B,]4 | [B,D]2 [B,D]2 C>[B,D] [A,D]>[G,D] | %3
 ([D,D]2- [D,-F,D-]2 [D,A,D]2 D2) | [G,D]2 [G,D]2 [^D,B,]>[D,B,] [D,B,]>[D,B,] | [E,B,]4 [E,G,]4 | %6
 [A,,A,]2 [A,,A,]2 [A,,A,]>[A,,A,] [A,,A,]>[A,,A,] | ([D,A,]2- [D,A,]2- [D,F,A,]2 D,2) | %8
 [D,C]2 [D,C]2 [D,C]>[D,B,] [D,A,]>[D,^G,] | [D,A,]4 [D,D]4 | %10
 [G,B,]2 [G,B,]2 [D,A,]>[D,A,] [D,D]>[D,D] | ([G,D]2- [G,-B,D-]2 [G,DE]2 D2) | %12
 [G,B,]2 [G,B,]2 G,>G, [B,,G,]>[B,,G,] | [C,A,]2 [B,,^G,]2 [A,,A,]2 [C,A,]2 | %14
 [D,G,]2 [E,G,]2 [A,,A,]>[C,A,] [D,B,]>[D,A,] | [G,,G,]6 z2 || %16
 [G,D]2 [G,D]2 [G,D]>[G,E] [D,D]>[D,C] | [G,B,]4 [G,B,]4 | [B,D]2 [B,D]2 C>[B,D] [A,D]>[G,D] | %19
 ([D,D]2- [D,A,D-]2 [F,D]2 D,2) | [G,D]2 [=F,D]2 [E,C]>[E,C] [D,B,]>[D,B,] | %21
 [C,C]2 [E,^G,]2 A,2 [C,C]2 | [D,B,]2 [E,G,]2 [A,,G,]2 [D,A,]2 | [G,,G,]6 z2 |] %24
V:4
 x8 | x8 | x4 C3/2 x5/2 | x8 | x8 | x8 | x8 | x8 | x8 | x8 | x8 | x8 | x4 G,>G, x2 | x8 | x8 | %15
 x8 || x8 | x8 | x4 C3/2 x5/2 | x8 | x8 | x4 A,2 x2 | x8 | x8 |] %24

